svg/color/atom.svg

<svg width="64" height="65" viewBox="0 0 64 65" fill="none" xmlns="http://www.w3.org/2000/svg">
<g clip-path="url(#clip0_11313_1855)">
<rect y="0.303711" width="64" height="64" rx="32" fill="white"/>
<path d="M32 64.3037C49.6731 64.3037 64 49.9768 64 32.3037C64 14.6306 49.6731 0.303711 32 0.303711C14.3269 0.303711 0 14.6306 0 32.3037C0 49.9768 14.3269 64.3037 32 64.3037Z" fill="#2E3148"/>
<path d="M32.0001 50.8717C42.2549 50.8717 50.568 42.5585 50.568 32.3037C50.568 22.0489 42.2549 13.7358 32.0001 13.7358C21.7453 13.7358 13.4321 22.0489 13.4321 32.3037C13.4321 42.5585 21.7453 50.8717 32.0001 50.8717Z" fill="#1B1E36"/>
<path d="M32.0658 4.38611C28.6116 4.38611 25.8107 16.9147 25.8107 32.3697C25.8107 47.8247 28.6116 60.3533 32.0658 60.3533C35.52 60.3533 38.3209 47.8247 38.3209 32.3697C38.3209 16.9147 35.52 4.38611 32.0658 4.38611ZM32.4976 58.7741C32.1026 59.3009 31.7076 58.9057 31.7076 58.9057C30.1168 57.0625 29.3215 53.6382 29.3215 53.6382C26.539 44.6836 27.2013 25.4572 27.2013 25.4572C28.5089 10.1935 30.8877 6.58771 31.6971 5.7872C31.7798 5.7055 31.8886 5.65557 32.0045 5.6462C32.1203 5.63684 32.2358 5.66863 32.3305 5.736C33.505 6.56825 34.4901 10.0488 34.4901 10.0488C37.399 20.8472 37.1356 30.9871 37.1356 30.9871C37.399 39.8101 35.6779 49.6866 35.6779 49.6866C34.3531 57.1925 32.4976 58.7741 32.4976 58.7741Z" fill="#6F7390"/>
<path d="M56.3384 18.4436C54.6186 15.4463 42.3585 19.252 28.9464 26.9428C15.5343 34.6335 6.07359 43.2984 7.79212 46.2943C9.51065 49.2903 21.772 45.4859 35.1841 37.7951C48.5962 30.1044 58.057 21.4396 56.3384 18.4436ZM9.37881 45.8832C8.72038 45.8003 8.86911 45.2591 8.86911 45.2591C9.67679 42.9625 12.247 40.5684 12.247 40.5684C18.6324 33.6984 35.6401 24.7054 35.6401 24.7054C49.5291 18.2434 53.8432 18.516 54.9376 18.8174C55.0499 18.8487 55.1475 18.9188 55.2131 19.0152C55.2787 19.1117 55.3081 19.2282 55.296 19.3442C55.1644 20.7778 52.6292 23.3634 52.6292 23.3634C44.7158 31.2633 35.7888 36.0817 35.7888 36.0817C28.2667 40.7025 18.8434 44.1224 18.8434 44.1224C11.6731 46.7062 9.37907 45.8832 9.37907 45.8832H9.37881Z" fill="#6F7390"/>
<path d="M56.2777 46.3942C58.0109 43.4049 48.5739 34.7004 35.2089 26.9518C21.844 19.2032 9.58539 15.3504 7.85381 18.3448C6.12222 21.3393 15.5576 30.0386 28.9303 37.7873C42.303 45.5359 54.5462 49.3889 56.2777 46.3942ZM9.00222 19.4999C8.74622 18.8929 9.28664 18.7467 9.28664 18.7467C11.6792 18.2949 15.04 19.3245 15.04 19.3245C24.183 21.4066 40.4864 31.6189 40.4864 31.6189C53.0388 40.4025 54.964 44.2715 55.2525 45.3697C55.2818 45.4824 55.2704 45.6017 55.2203 45.7068C55.1702 45.8119 55.0846 45.8958 54.9785 45.9439C53.6696 46.5432 50.164 45.6503 50.164 45.6503C39.359 42.7531 30.7177 37.445 30.7177 37.445C22.9535 33.2573 15.276 26.8138 15.276 26.8138C9.44229 21.9019 9.00402 19.5065 9.00402 19.5065L9.00222 19.4999Z" fill="#6F7390"/>
<path d="M32 35.5959C33.8183 35.5959 35.2922 34.1219 35.2922 32.3037C35.2922 30.4855 33.8183 29.0115 32 29.0115C30.1818 29.0115 28.7079 30.4855 28.7079 32.3037C28.7079 34.1219 30.1818 35.5959 32 35.5959Z" fill="#B7B9C8"/>
<path d="M45.4978 21.6369C46.5524 21.6369 47.4073 20.7526 47.4073 19.6616C47.4073 18.5707 46.5524 17.6863 45.4978 17.6863C44.4432 17.6863 43.5883 18.5707 43.5883 19.6616C43.5883 20.7526 44.4432 21.6369 45.4978 21.6369Z" fill="#B7B9C8"/>
<path d="M14.1563 28.3531C15.2109 28.3531 16.0658 27.4687 16.0658 26.3778C16.0658 25.2869 15.2109 24.4025 14.1563 24.4025C13.1017 24.4025 12.2468 25.2869 12.2468 26.3778C12.2468 27.4687 13.1017 28.3531 14.1563 28.3531Z" fill="#B7B9C8"/>
<path d="M28.1152 52.5835C29.1698 52.5835 30.0247 51.6992 30.0247 50.6082C30.0247 49.5173 29.1698 48.6329 28.1152 48.6329C27.0606 48.6329 26.2057 49.5173 26.2057 50.6082C26.2057 51.6992 27.0606 52.5835 28.1152 52.5835Z" fill="#B7B9C8"/>
</g>
<rect x="0.5" y="0.803711" width="63" height="63" rx="31.5" stroke="#070B14" stroke-opacity="0.15"/>
<defs>
<clipPath id="clip0_11313_1855">
<rect y="0.303711" width="64" height="64" rx="32" fill="white"/>
</clipPath>
</defs>
</svg>

<svg xmlns="http://www.w3.org/2000/svg" width="64" height="65" fill="none" viewBox="0 0 64 65"><g clip-path="url(#atom_svg-a)"><rect width="64" height="64" y=".304" fill="#fff" rx="32"/><path fill="#2E3148" d="M32 64.304c17.673 0 32-14.327 32-32s-14.327-32-32-32-32 14.327-32 32 14.327 32 32 32"/><path fill="#1B1E36" d="M32 50.872c10.255 0 18.568-8.313 18.568-18.568S42.255 13.736 32 13.736s-18.568 8.313-18.568 18.568S21.745 50.872 32 50.872"/><path fill="#6F7390" d="M32.066 4.386c-3.454 0-6.255 12.529-6.255 27.984s2.8 27.983 6.255 27.983S38.32 47.825 38.32 32.37s-2.8-27.984-6.254-27.984m.432 54.388c-.395.527-.79.132-.79.132-1.591-1.843-2.386-5.268-2.386-5.268-2.783-8.954-2.12-28.18-2.12-28.18 1.307-15.264 3.686-18.87 4.495-19.67a.494.494 0 0 1 .634-.052c1.174.832 2.16 4.313 2.16 4.313 2.908 10.798 2.645 20.938 2.645 20.938.263 8.823-1.458 18.7-1.458 18.7-1.325 7.506-3.18 9.087-3.18 9.087"/><path fill="#6F7390" d="M56.338 18.444c-1.72-2.998-13.98.808-27.392 8.499-13.412 7.69-22.872 16.355-21.154 19.351 1.719 2.996 13.98-.808 27.392-8.499 13.412-7.69 22.873-16.355 21.154-19.351m-46.96 27.44c-.658-.084-.509-.625-.509-.625.808-2.297 3.378-4.69 3.378-4.69 6.385-6.87 23.393-15.864 23.393-15.864 13.89-6.462 18.203-6.189 19.298-5.888a.494.494 0 0 1 .358.527c-.132 1.434-2.667 4.02-2.667 4.02-7.913 7.9-16.84 12.718-16.84 12.718-7.522 4.62-16.946 8.04-16.946 8.04-7.17 2.584-9.464 1.761-9.464 1.761"/><path fill="#6F7390" d="M56.278 46.394c1.733-2.99-7.704-11.694-21.07-19.442C21.845 19.203 9.586 15.35 7.855 18.345c-1.732 2.994 7.704 11.694 21.076 19.442 13.373 7.749 25.616 11.602 27.348 8.607M9.002 19.5c-.256-.607.285-.753.285-.753 2.392-.452 5.753.578 5.753.578 9.143 2.082 25.446 12.294 25.446 12.294 12.553 8.784 14.478 12.653 14.767 13.75a.494.494 0 0 1-.275.575c-1.308.6-4.814-.294-4.814-.294-10.805-2.897-19.446-8.205-19.446-8.205-7.765-4.188-15.442-10.631-15.442-10.631-5.834-4.912-6.272-7.308-6.272-7.308z"/><path fill="#B7B9C8" d="M32 35.596a3.292 3.292 0 1 0 0-6.584 3.292 3.292 0 0 0 0 6.584m13.498-13.959c1.054 0 1.91-.884 1.91-1.975s-.856-1.976-1.91-1.976c-1.055 0-1.91.885-1.91 1.976s.855 1.975 1.91 1.975m-31.342 6.716c1.055 0 1.91-.884 1.91-1.975s-.855-1.976-1.91-1.976-1.91.885-1.91 1.976.856 1.975 1.91 1.975m13.959 24.231c1.055 0 1.91-.885 1.91-1.976s-.855-1.975-1.91-1.975-1.91.884-1.91 1.975.856 1.976 1.91 1.976"/></g><rect width="63" height="63" x=".5" y=".804" stroke="#070B14" stroke-opacity=".15" rx="31.5"/><defs><clipPath id="atom_svg-a"><rect width="64" height="64" y=".304" fill="#fff" rx="32"/></clipPath></defs></svg>
